src/raw/mail/icon_32.svg

<svg width="32" height="32" viewBox="0 0 32 32" fill="none" xmlns="http://www.w3.org/2000/svg">
<path d="M28 5.33333H4C2.89543 5.33333 2 6.22876 2 7.33333V24.6667C2 25.7712 2.89543 26.6667 4 26.6667H28C29.1046 26.6667 30 25.7712 30 24.6667V7.33333C30 6.22876 29.1046 5.33333 28 5.33333Z" stroke="#71717A" stroke-width="1.5" stroke-linecap="round" stroke-linejoin="round"/>
<path d="M2.66699 6L13.3111 15.0187C14.0822 15.6118 15.0277 15.9334 16.0005 15.9334C16.9733 15.9334 17.9188 15.6118 18.6898 15.0187L29.1012 6.19701" stroke="#71717A" stroke-width="1.5" stroke-linecap="round" stroke-linejoin="round"/>
</svg>

<svg xmlns="http://www.w3.org/2000/svg" width="32" height="32" fill="none" viewBox="0 0 32 32">
  <path stroke="#3F3F46" stroke-linecap="round" stroke-linejoin="round" stroke-width="2"
    d="M28 5.333H4a2 2 0 0 0-2 2v17.334a2 2 0 0 0 2 2h24a2 2 0 0 0 2-2V7.333a2 2 0 0 0-2-2Z" />
  <path stroke="#3F3F46" stroke-linecap="round" stroke-linejoin="round" stroke-width="2"
    d="m2.667 6 10.644 9.019a4.411 4.411 0 0 0 5.379 0l10.384-8.8" />
</svg>
